svg/emoji_u1f9eb.svg

<?xml version="1.0" encoding="utf-8"?>
<!-- Generator: Adobe Illustrator 25.2.3, SVG Export Plug-In . SVG Version: 6.00 Build 0)  -->
<svg version="1.1" id="Layer_4" xmlns="http://www.w3.org/2000/svg" xmlns:xlink="http://www.w3.org/1999/xlink" x="0px" y="0px"
	 viewBox="0 0 128 128" style="enable-background:new 0 0 128 128;" xml:space="preserve">
<g>
	<path style="opacity:0.6;fill:#4FC3F7;" d="M124,71.52c0-4.32-5.33-6.83-18.4-8.68c-10.53-1.48-25.32-2.3-41.66-2.3
		c-17.48,0-32.19,0.8-42.52,2.3C9.05,64.65,4,67.17,4,71.52c0,0.13,0.01,37.69,0.01,37.69c0,7.33,26.83,14.29,59.92,14.29
		c33.1,0,59.92-6.96,59.92-14.29C123.86,109.21,124,71.92,124,71.52z"/>
	<g style="opacity:0.7;">
		<path style="fill:#FFFFFF;" d="M63.94,63.77c34.1,0,56.84,3.47,56.84,7.75s-25.97,7.75-56.84,7.75S7.22,75.8,7.22,71.52
			S27.42,63.77,63.94,63.77 M63.94,60.54c-17.48,0-32.19,0.8-42.52,2.3C9.05,64.65,4,67.17,4,71.52c0,3.61,3.33,6.47,19.57,8.68
			c10.91,1.48,25.25,2.3,40.36,2.3c15.13,0,29.48-0.82,40.42-2.3c16.3-2.21,19.64-5.07,19.64-8.68c0-4.32-5.33-6.83-18.4-8.68
			C95.07,61.36,80.28,60.54,63.94,60.54L63.94,60.54z"/>
	</g>
	<g>
		<linearGradient id="SVGID_1_" gradientUnits="userSpaceOnUse" x1="58.4366" y1="109.9976" x2="148.6412" y2="109.9976">
			<stop  offset="0" style="stop-color:#C62828"/>
			<stop  offset="1" style="stop-color:#B02424"/>
		</linearGradient>
		<path style="fill:url(#SVGID_1_);" d="M121.11,100.47l0,6.39c0,6.99-25.6,12.66-57.17,12.66s-57.17-5.67-57.17-12.66l0-6.39
			H121.11z"/>
	</g>
	<ellipse style="fill:#FF5252;" cx="63.94" cy="100.11" rx="57.17" ry="9.32"/>
	<path style="fill:#E8F5E9;" d="M42.5,98.72c-0.27-2.11-5.51-4.82-11.97-4.82c-5.03,0-9.33,1.65-11.11,3.37c0,0-3.47,0.54-5.4,1.07
		c-1.21,0.33-1.59,1.39-0.35,1.87c1.66,0.64,3.21,0.17,5,0.99c0.8,0.37,1.07,1.63,4.98,1.97c1.06,0.09,2.13,0.12,3.19,0.14
		c1.25,0.03,2.53,0.05,3.75,0.37c0.48,0.13,2.63,0.96,4.26,0.7c3.04-0.5,3.05-1.16,3.76-1.51c0.68-0.33,2.18-0.72,2.93-0.76
		c1.29-0.07,5.49-0.99,5.49-1.97C47.02,99.27,44.98,99.45,42.5,98.72z"/>
	<path style="fill:#E8F5E9;" d="M79.45,91.46c-1.47-1.39-4.94-2.71-9-2.71c-3.74,0-6.98,1.12-8.62,2.38c-2.45,0.5-4,1.22-4,2.03
		c0,1.51,5.43,2.74,12.13,2.74s12.13-1.22,12.13-2.74C82.08,92.51,81.09,91.92,79.45,91.46z"/>
	
		<radialGradient id="SVGID_2_" cx="70.4715" cy="92.7164" r="11.7548" gradientTransform="matrix(1 0 0 0.3944 0 53.4202)" gradientUnits="userSpaceOnUse">
		<stop  offset="0.5593" style="stop-color:#00BFA5"/>
		<stop  offset="1" style="stop-color:#00BFA5;stop-opacity:0"/>
	</radialGradient>
	<path style="fill:url(#SVGID_2_);" d="M80.19,92.8c0,1.73-4.36,2.22-9.75,2.22s-9.75-0.49-9.75-2.22s4.36-4.05,9.75-4.05
		S80.19,91.07,80.19,92.8z"/>
	
		<radialGradient id="SVGID_3_" cx="30.571" cy="100.457" r="14.4611" gradientTransform="matrix(1 0 0 0.3944 0 55.8122)" gradientUnits="userSpaceOnUse">
		<stop  offset="0.5551" style="stop-color:#00BFA5"/>
		<stop  offset="1" style="stop-color:#00BFA5;stop-opacity:0"/>
	</radialGradient>
	<path style="fill:url(#SVGID_3_);" d="M42.53,98.89c0,2.13-5.37,2.73-11.99,2.73s-11.99-0.6-11.99-2.73s5.37-4.99,11.99-4.99
		S42.53,96.76,42.53,98.89z"/>
	<path style="fill:#F3E5F5;" d="M111.34,98.68c-0.2,0.16-0.45,0.29-0.58,0.46c-0.14,0.18-0.14,0.38-0.2,0.58
		c-0.28,0.96-2.02,1.64-3.78,1.97c-1.76,0.33-3.67,0.44-5.38,0.85c-1.82,0.44-3.4,1.21-5.38,1.33c-1.9,0.12-3.75-0.33-5.66-0.32
		c-1.95,0.01-3.91-0.14-5.88-0.15c-2.09-0.01-3.17,0.49-6.36,0.04c-1.47-0.21-2.29-1.65-3.8-1.97c-1.25-0.26-3.69-0.58-4.37-1.72
		c-0.65-1.09,0.22-1.96,2.34-2.89c1.28-0.56,2.83-1.17,4.45-1.55c4.46-1.05,9.53-1.4,14.38-1.4c4.56,0,9.26,0.32,13.51,1.21
		c2.07,0.43,8.53,2.01,6.76,3.53C111.37,98.65,111.35,98.66,111.34,98.68z"/>
	
		<radialGradient id="SVGID_4_" cx="92.6218" cy="95.9681" r="20.8346" gradientTransform="matrix(0.9185 0 0 0.3707 5.5905 57.7962)" gradientUnits="userSpaceOnUse">
		<stop  offset="0.6323" style="stop-color:#EA80FC"/>
		<stop  offset="1" style="stop-color:#EA80FC;stop-opacity:0"/>
	</radialGradient>
	<path style="fill:url(#SVGID_4_);" d="M105.85,97.33c0,2.77-6.82,5.01-15.23,5.01s-15.23-2.24-15.23-5.01s6.82-6.18,15.23-6.18
		S105.85,94.57,105.85,97.33z"/>
	<path style="fill:none;stroke:#FFFFFF;stroke-width:3.067;stroke-linecap:round;stroke-miterlimit:10;" d="M11.99,76.29
		c0,0,5.61,1.91,17.82,3.1"/>
	<ellipse style="fill:#FFEBEE;" cx="48.4" cy="95.02" rx="4.28" ry="1.37"/>
	<ellipse style="fill:#FFEBEE;" cx="51.17" cy="104.64" rx="3.66" ry="1.17"/>
	<ellipse style="fill:#FFEBEE;" cx="60.69" cy="101.3" rx="6.65" ry="2.13"/>
	<g style="opacity:0.46;">
		<path style="fill:#FFFFFF;" d="M31.62,121.11c-13.72-2.13-19.26-4.87-19.26-4.87V78.15c0,0,8.79,2.09,19.26,2.94V121.11z"/>
	</g>
</g>
</svg>

<?xml version="1.0" encoding="UTF-8" standalone="no"?>
<!DOCTYPE svg PUBLIC "-//W3C//DTD SVG 1.1//EN" "http://www.w3.org/Graphics/SVG/1.1/DTD/svg11.dtd">
<svg width="100%" height="100%" viewBox="0 0 128 128" version="1.1" xmlns="http://www.w3.org/2000/svg" xmlns:xlink="http://www.w3.org/1999/xlink" xml:space="preserve" xmlns:serif="http://www.serif.com/" style="fill-rule:evenodd;clip-rule:evenodd;stroke-linecap:round;stroke-miterlimit:10;">
    <g id="g11952">
        <path id="path11896" d="M124,71.52C124,67.2 118.67,64.69 105.6,62.84C95.07,61.36 80.28,60.54 63.94,60.54C46.46,60.54 31.75,61.34 21.42,62.84C9.05,64.65 4,67.17 4,71.52C4,71.65 4.01,109.21 4.01,109.21C4.01,116.54 30.84,123.5 63.93,123.5C97.03,123.5 123.85,116.54 123.85,109.21C123.86,109.21 124,71.92 124,71.52Z" style="fill:rgb(145,188,219);fill-opacity:0.6;fill-rule:nonzero;"/>
        <g id="g11900" opacity="0.7">
            <path id="path11898" d="M63.94,63.77C98.04,63.77 120.78,67.24 120.78,71.52C120.78,75.8 94.81,79.27 63.94,79.27C33.07,79.27 7.22,75.8 7.22,71.52C7.22,67.24 27.42,63.77 63.94,63.77M63.94,60.54C46.46,60.54 31.75,61.34 21.42,62.84C9.05,64.65 4,67.17 4,71.52C4,75.13 7.33,77.99 23.57,80.2C34.48,81.68 48.82,82.5 63.93,82.5C79.06,82.5 93.41,81.68 104.35,80.2C120.65,77.99 123.99,75.13 123.99,71.52C123.99,67.2 118.66,64.69 105.59,62.84C95.07,61.36 80.28,60.54 63.94,60.54Z" style="fill:rgb(46,130,189);fill-rule:nonzero;"/>
        </g>
        <g id="g11909">
            <path id="path11907" d="M121.11,100.47L121.11,106.86C121.11,113.85 95.51,119.52 63.94,119.52C32.37,119.52 6.77,113.85 6.77,106.86L6.77,100.47L121.11,100.47Z" style="fill:rgb(178,36,36);fill-rule:nonzero;"/>
        </g>
        <ellipse id="ellipse11911" cx="63.94" cy="100.11" rx="57.17" ry="9.32" style="fill:rgb(219,68,55);"/>
        <path id="path11913" d="M42.5,98.72C42.23,96.61 36.99,93.9 30.53,93.9C25.5,93.9 21.2,95.55 19.42,97.27C19.42,97.27 15.95,97.81 14.02,98.34C12.81,98.67 12.43,99.73 13.67,100.21C15.33,100.85 16.88,100.38 18.67,101.2C19.47,101.57 19.74,102.83 23.65,103.17C24.71,103.26 25.78,103.29 26.84,103.31C28.09,103.34 29.37,103.36 30.59,103.68C31.07,103.81 33.22,104.64 34.85,104.38C37.89,103.88 37.9,103.22 38.61,102.87C39.29,102.54 40.79,102.15 41.54,102.11C42.83,102.04 47.03,101.12 47.03,100.14C47.02,99.27 44.98,99.45 42.5,98.72Z" style="fill:rgb(220,246,245);fill-rule:nonzero;"/>
        <path id="path11915" d="M79.45,91.46C77.98,90.07 74.51,88.75 70.45,88.75C66.71,88.75 63.47,89.87 61.83,91.13C59.38,91.63 57.83,92.35 57.83,93.16C57.83,94.67 63.26,95.9 69.96,95.9C76.66,95.9 82.09,94.68 82.09,93.16C82.08,92.51 81.09,91.92 79.45,91.46Z" style="fill:rgb(220,246,245);fill-rule:nonzero;"/>
        <path id="path11922" d="M80.19,92.8C80.19,94.53 75.83,95.02 70.44,95.02C65.05,95.02 60.69,94.53 60.69,92.8C60.69,91.07 65.05,88.75 70.44,88.75C75.83,88.75 80.19,91.07 80.19,92.8Z" style="fill:rgb(220,246,245);fill-rule:nonzero;"/>
        <path id="path11929" d="M42.53,98.89C42.53,101.02 37.16,101.62 30.54,101.62C23.92,101.62 18.55,101.02 18.55,98.89C18.55,96.76 23.92,93.9 30.54,93.9C37.16,93.9 42.53,96.76 42.53,98.89Z" style="fill:rgb(220,246,245);fill-rule:nonzero;"/>
        <path id="path11931" d="M111.34,98.68C111.14,98.84 110.89,98.97 110.76,99.14C110.62,99.32 110.62,99.52 110.56,99.72C110.28,100.68 108.54,101.36 106.78,101.69C105.02,102.02 103.11,102.13 101.4,102.54C99.58,102.98 98,103.75 96.02,103.87C94.12,103.99 92.27,103.54 90.36,103.55C88.41,103.56 86.45,103.41 84.48,103.4C82.39,103.39 81.31,103.89 78.12,103.44C76.65,103.23 75.83,101.79 74.32,101.47C73.07,101.21 70.63,100.89 69.95,99.75C69.3,98.66 70.17,97.79 72.29,96.86C73.57,96.3 75.12,95.69 76.74,95.31C81.2,94.26 86.27,93.91 91.12,93.91C95.68,93.91 100.38,94.23 104.63,95.12C106.7,95.55 113.16,97.13 111.39,98.65C111.37,98.65 111.35,98.66 111.34,98.68Z" style="fill:rgb(255,206,188);fill-rule:nonzero;"/>
        <path id="path11938" d="M105.85,97.33C105.85,100.1 99.03,102.34 90.62,102.34C82.21,102.34 75.39,100.1 75.39,97.33C75.39,94.56 82.21,91.15 90.62,91.15C99.03,91.15 105.85,94.57 105.85,97.33Z" style="fill:rgb(255,206,188);fill-rule:nonzero;"/>
        <path id="path11940" d="M11.99,76.29C11.99,76.29 17.6,78.2 29.81,79.39" style="fill:none;fill-rule:nonzero;stroke:rgb(232,240,246);stroke-width:3.07px;"/>
        <ellipse id="ellipse11942" cx="48.4" cy="95.02" rx="4.28" ry="1.37" style="fill:rgb(255,206,188);"/>
        <ellipse id="ellipse11944" cx="51.17" cy="104.64" rx="3.66" ry="1.17" style="fill:rgb(255,206,188);"/>
        <ellipse id="ellipse11946" cx="60.69" cy="101.3" rx="6.65" ry="2.13" style="fill:rgb(255,206,188);"/>
        <g id="g11950" opacity="0.46">
            <path id="path11948" d="M31.62,121.11C17.9,118.98 12.36,116.24 12.36,116.24L12.36,78.15C12.36,78.15 21.15,80.24 31.62,81.09L31.62,121.11Z" style="fill:white;fill-rule:nonzero;"/>
        </g>
    </g>
</svg>
